X:1
T:The Bright Forever
T:The Bright Forever
T:Hubert Platt Main, 1899
T:Frances Jane (Fanny) Crosby, 1871
T:Public Domain Courtesy of the Cyber Hymnal™
T:Public Domain Courtesy of the Cyber Hymnal™
C:Hubert Platt Main, 1899
Z:Public Domain
Z:Courtesy of the Cyber Hymnal™
%%score ( 1 2 ) ( 3 4 )
L:1/8
Q:1/4=110
M:3/4
K:F
V:1 treble 
V:2 treble 
V:3 bass 
V:4 bass 
V:1
 C>[CF] | [FA]3 [FA] [FB]>[FA] | ([FA]>[EG]) F2 F>[FA] | [Fc]3 [FA] [EG]F | [EG]4 C>[CF] | %5
w: 1.~Break- ing|through the clouds that|ga- * ther, O’er the|Christ- ian’s na- tal|skies, Dis- tant|
w: 2.~Yet a|lit- tle while we|lin- * ger, Ere we|reach our jour- ney’s|end; Yet a|
w: 3.~O the|bliss of life e-|ter- * nal! O the|long un- brok- en|rest! In the|
 [FA]3 [FA] [FB]>[FA] | ([FA]>[EG]) F2 [FA]>[FA] | [EG]3 [Ec] [Ge]>[Fd] | [Ec]4 [Fc]>[FA] | %9
w: beams, like floods of|glor- * y, Fill the|soul with glad sur-|prise; And we|
w: lit- tle while of|la- * bor, Ere the|even- ing shades de-|scend; Then we’ll|
w: gold- en fields of|plea- * sure, In the|re- gion of the|blest; But, to|
 [EB]3 [Ed] [Fc][GB] | [FA] [Fc]3 [Fc]>[FA] | [EB]3 [Ed] [Fc][GB] | [FA]4 C>[CF] | %13
w: al- most hear the|e- cho Of the|pure and ho- ly|throng, In the|
w: lay us down to|slum- ber, But the|night will soon be|o’er; In the|
w: see our dear Re-|deem- er, And be-|fore His throne to|fall, There to|
 [FA]3 [FA] [FB][Fc] | [Fc] [FB]3 [FA]>[DG] | [CF]3 [FA] [EA]>[EG] | F4 ||"^Refrain" [Fc]>[Fc] | %18
w: bright, the bright for-|ev- er, In the|sum- mer land of|song.||
w: bright, the bright for-|ev- er, We shall|wake, to weep no|more.|On the|
w: bear His gra- cious|wel- come, Will be|sweet- er far than|all.||
 [Fc]3 [Fc] [Fd]>[Fc] | [Fc] [FA]3 F>[EG] | [FA]3 [FA] [Gc]>[FA] | [FA] [EG]3 [Ec]>[Ec] | %22
w: ||||
w: banks bey- ond the|riv- er We shall|meet, no more to|sev- er; In the|
w: ||||
 [Fc]3 [Fc] [Fd]>[Fc] | [Fc] [FA]3 F>[FG] | [FA]3 [Fc] [CF]>[CG] | [CF]4 |] %26
w: ||||
w: bright, the bright for-|ev- er, In the|sum- mer land of|song.|
w: ||||
V:2
 C3/2 x/ | x6 | x2 F2 F3/2 x/ | x5 F | x4 C3/2 x/ | x6 | x6 | x6 | x6 | x6 | x6 | x6 | x4 C3/2 x/ | %13
 x6 | x6 | x6 | F4 || x2 | x6 | x6 | x6 | x6 | x6 | x6 | x6 | x4 |] %26
V:3
 [F,A,]>[F,A,] | [F,C]3 [F,C] [F,D]>[F,C] | (C>B,) [F,A,]2 [F,A,]>[F,C] | %3
 [F,A,]3 [F,C] [F,B,][F,A,] | [C,C]4 [F,A,]>[F,A,] | [F,C]3 [F,C] [F,D]>[F,C] | %6
 (C>B,) [F,A,]2 [F,C]>[F,C] | [G,C]3 [G,C] [G,=B,]>[G,B,] | [C,C]4 [C,A,]>[C,F,] | %9
 [C,G,]3 [C,B,] [C,A,][C,C] | [F,C] [F,A,]3 [F,A,]>F, | [C,G,]3 [C,B,] [C,A,][C,C] | %12
 [F,C]4 [F,A,]>[F,A,] | [F,C]3 [F,C] [F,D][A,,_E] | [B,,_E] [B,,D]3 [B,,C]>[B,,B,] | %15
 [C,A,]3 [C,C] [C,C]>[C,B,] | [F,A,]4 || [F,A,]>[F,A,] | [F,A,]3 [F,A,] [F,B,]>[F,A,] | %19
 [F,A,] [F,C]3 [A,C]>[G,C] | [F,C]3 [F,C] [E,C]>[F,C] | [C,C] [C,C]3 [C,G,]>[C,B,] | %22
 [F,A,]3 [F,A,] [F,B,]>[F,A,] | [F,A,] [F,C]3 [F,A,]>[D,=B,] | [C,C]3 [C,A,] [C,A,]>[C,B,] | %25
 [F,,F,A,]4 |] %26
V:4
 x2 | x6 | F,2 x4 | x6 | x6 | x6 | F,2 x4 | x6 | x6 | x6 | x6 | x6 | x6 | x6 | x6 | x6 | x4 || x2 | %18
 x6 | x6 | x6 | x6 | x6 | x6 | x6 | x4 |] %26

